carriers/postSk.svg

<svg width="128" height="64" viewBox="0 0 128 64" fill="none" xmlns="http://www.w3.org/2000/svg">
<rect width="128" height="64" rx="6" fill="white"/>
<path fill-rule="evenodd" clip-rule="evenodd" d="M47.7334 6.22218H92.9072V42.0407H47.7334V6.22218ZM34.8657 6.80364L36.4068 8.36364V9.45564L34.8657 8.444V6.80364ZM38.4301 6.30255H41.3941C41.6304 6.30255 42.141 6.35455 42.2355 6H42.4294V7.56473C42.2301 7.65435 42.0179 7.71179 41.8006 7.73491C42.0613 7.96324 42.2665 8.2479 42.4009 8.56733C42.5352 8.88675 42.595 9.23256 42.5759 9.57855C42.5759 10.5524 42.037 11.3135 41.0112 11.3135C39.9854 11.3135 39.4039 10.6564 39.2479 9.67309L39.0494 8.288C39.0494 7.94764 38.865 7.74909 38.657 7.74909C38.1039 7.74909 37.9952 8.25018 37.9952 8.75127C37.9952 9.25236 38.1275 9.54073 38.761 9.69673V11.1433C37.3144 10.9873 36.837 10.0371 36.837 8.61891C36.837 7.60727 37.1821 6.30255 38.4301 6.30255ZM39.801 7.74909C39.9759 8.06468 40.0792 8.41491 40.1035 8.77491C40.1697 9.40836 40.3541 9.81491 40.9308 9.81491C41.0103 9.81743 41.0895 9.80427 41.1639 9.77617C41.2382 9.74807 41.3064 9.70558 41.3643 9.65114C41.4223 9.5967 41.4689 9.53138 41.5016 9.45889C41.5343 9.38641 41.5524 9.3082 41.5548 9.22873C41.5572 9.19568 41.5572 9.1625 41.5548 9.12945C41.5735 8.90925 41.5406 8.68772 41.4585 8.48253C41.3764 8.27734 41.2475 8.09417 41.0821 7.94764C40.6755 7.64509 40.3305 7.76327 39.8199 7.74909H39.801ZM40.7465 15.3127H42.4435V16.8113H35.0879V15.2891H39.0872L37.0119 13.4596V11.6065L39.1155 13.6298L42.4246 11.564V13.3415L40.1225 14.6982L40.7465 15.3127ZM38.6712 18.0876V19.5625C38.0755 19.7185 37.9574 19.9833 37.9574 20.6167C37.9574 21.2502 38.1417 21.5622 38.4963 21.5622C38.6712 21.5622 38.8272 21.3778 38.917 20.9665C39.0068 20.5553 39.1297 20.1251 39.2195 19.6665C39.4181 18.7731 39.7726 17.9553 40.7465 17.9553C42.0748 17.9553 42.5901 19.0331 42.5901 20.4796C42.5901 21.7465 42.1835 23.2167 40.7465 23.2167V21.704C41.2192 21.704 41.5123 21.2691 41.5123 20.4135C41.5123 20.1109 41.4697 19.4302 40.9592 19.4302C40.7748 19.4302 40.6141 19.6665 40.5243 20.0589C40.4345 20.4513 40.3115 20.9665 40.2359 21.3873C39.9995 22.2571 39.6544 22.9945 38.6948 23.0087C37.3948 23.0087 36.8512 21.8647 36.8512 20.7065C36.8512 19.0851 37.4563 18.2058 38.6712 18.1113V18.0876ZM38.6712 24.1669H42.4199V25.656H39.1108C38.5294 25.656 38.0046 25.812 38.0046 26.6535C37.9931 26.9604 38.1034 27.2594 38.3116 27.4852C38.5197 27.7111 38.8087 27.8454 39.1155 27.8589H42.3963V29.3291H37.0119V27.9109H37.8014V27.8731C37.5031 27.6972 37.2578 27.444 37.0914 27.1404C36.925 26.8367 36.8436 26.4937 36.8559 26.1476C36.8559 25.032 37.5177 24.148 38.6806 24.148L38.6712 24.1669ZM40.8552 32V30.4589C42.1079 30.804 42.5665 31.6975 42.5665 32.9455C42.5665 34.7749 41.621 35.7818 39.593 35.7818C37.9479 35.7818 36.8275 34.8364 36.8275 33.0825C36.8275 30.7189 38.8697 30.3218 40.1366 30.388V34.2833C41.1388 34.2833 41.465 33.7302 41.4555 32.9644C41.4829 32.7554 41.4396 32.5432 41.3325 32.3616C41.2254 32.18 41.0608 32.0394 40.8646 31.9622L40.8552 32ZM39.1959 34.2218V32C38.5294 32.1182 38.0283 32.4065 38.0283 33.1015C38.0283 33.7964 38.4301 34.1084 39.2054 34.1982L39.1959 34.2218ZM37.0025 36.1127L42.4294 38.1455V39.7244L37.0119 41.7524V40.0931L40.7086 38.9065L37.0119 37.6727V36.0655L37.0025 36.1127ZM39.7112 42.036C41.5643 42.036 42.5475 43.2698 42.5475 44.9811C42.5475 46.6924 41.5075 47.8884 39.7112 47.8884C39.3241 47.913 38.9362 47.8544 38.5736 47.7167C38.211 47.579 37.882 47.3652 37.6089 47.0898C37.3357 46.8144 37.1247 46.4838 36.9899 46.1201C36.8551 45.7563 36.7998 45.368 36.8275 44.9811C36.8275 43.2698 37.8534 42.0029 39.7206 42.0029L39.7112 42.036ZM39.7112 43.5865C38.9501 43.5865 38.0283 43.8891 38.0283 45.0047C38.0283 46.1204 38.9359 46.3615 39.7112 46.3615C40.4865 46.3615 41.3846 46.1629 41.3846 45.0047C41.3846 43.8465 40.4817 43.5535 39.7206 43.5535L39.7112 43.5865ZM35.0784 48.9662H42.4199V50.4364H35.0879L35.0784 48.9662ZM40.2123 57.948V56.4353C41.1577 56.4353 41.3941 55.5276 41.3846 54.8044C41.3846 54.1709 41.2617 53.1829 40.4392 53.1829C40.0279 53.1829 39.6734 53.476 39.4937 54.6011C39.3662 55.3207 39.1813 56.0289 38.9406 56.7189C38.6665 57.5604 37.929 57.8393 37.1537 57.8393C35.5086 57.8393 34.8894 56.3785 34.8894 54.9178C34.8894 52.748 36.1279 51.9585 37.253 51.9065V53.4571C36.3454 53.5233 36.1185 54.2182 36.1185 55.036C36.1185 55.6411 36.3312 56.3644 37.0261 56.3644C37.5555 56.3644 37.6974 55.9956 37.7919 55.5513L38.2268 53.6604C38.5388 52.3178 38.9879 51.6229 40.2123 51.6229C41.881 51.6229 42.5759 53.0411 42.5759 54.6625C42.5759 56.284 41.985 57.9385 40.1555 57.9385L40.2123 57.948ZM86.3552 55.5135L85.6319 57.6738H83.4101L87.0406 47.3305H89.5177L93.1341 57.6738H90.8035L90.1606 55.5135H86.3552ZM88.2225 49.7225L86.9366 53.7455H89.5177L88.2697 49.732L88.2225 49.7225ZM81.3395 49.1175V57.6265H79.4486V49.1175H76.2814V47.2644H84.4501V49.108L81.3395 49.1175ZM73.9177 45.5011H72.197L71.1948 46.6545L70.2068 45.4964H68.4719L69.8901 47.1556C68.3395 47.4582 67.0112 48.3753 67.0112 50.2331C67.0112 51.5851 67.6163 52.3745 68.6043 52.7433C69.5984 53.0834 70.618 53.3442 71.6534 53.5233C73.4592 53.8778 73.653 54.2985 73.653 54.8375C73.653 55.6789 72.8777 56.1422 71.3508 56.1422C69.8239 56.1422 69.025 55.4709 69.025 54.4829H66.8268C66.8268 57.1396 69.1905 57.9055 71.4974 57.9055C73.3268 57.9055 75.8512 57.2058 75.8512 54.5633C75.8512 52.8 75.0239 52.2564 72.9439 51.7695L70.273 51.1644C69.6254 50.9942 69.1148 50.8382 69.1148 50.0724C69.1148 49.1269 70.169 48.796 71.0057 48.796C72.4901 48.796 73.1614 49.4011 73.2559 50.3891H75.4777C75.4393 49.586 75.12 48.8218 74.5757 48.23C74.0314 47.6382 73.2966 47.2563 72.4995 47.1509L73.8799 45.4964L73.9177 45.5011ZM56.0912 52.5258C56.0912 49.3444 58.3934 46.9476 61.0264 46.9476C63.6595 46.9476 65.9475 49.1316 65.9475 52.5258C65.9475 55.92 63.6028 58 61.0123 58C58.4217 58 56.077 55.712 56.077 52.5258H56.0912ZM58.1145 52.5258C58.1145 54.3553 59.0599 56.1989 60.9839 56.1989C62.9079 56.1989 63.9195 54.308 63.9195 52.5258C63.9195 50.7436 62.9079 48.744 60.9839 48.744C59.0599 48.744 58.1145 50.668 58.1145 52.5258ZM49.6054 53.944V57.6455H47.7523V47.2455H52.1723C54.1199 47.2455 55.2355 48.588 55.2355 50.6113C55.2355 52.6345 53.9214 53.8873 52.0919 53.8873L49.6054 53.944ZM49.6054 52.1571H51.9359C52.1385 52.1691 52.3414 52.141 52.533 52.0744C52.7247 52.0078 52.9013 51.904 53.0528 51.769C53.2042 51.634 53.3275 51.4704 53.4156 51.2876C53.5037 51.1048 53.5548 50.9064 53.566 50.7038C53.5772 50.5012 53.5483 50.2984 53.4809 50.107C53.4135 49.9156 53.309 49.7394 53.1734 49.5885C53.0377 49.4376 52.8736 49.315 52.6905 49.2276C52.5073 49.1403 52.3087 49.09 52.1061 49.0796H49.5723V52.1571" fill="#003A77"/>
<path fill-rule="evenodd" clip-rule="evenodd" d="M70.3109 17.8182C71.2399 17.8145 72.1491 18.0862 72.9237 18.599C73.6983 19.1118 74.3035 19.8427 74.6628 20.6993C75.0222 21.556 75.1196 22.4999 74.9427 23.4118C74.7658 24.3238 74.3226 25.1629 73.6691 25.823C73.0155 26.4832 72.1809 26.9348 71.2708 27.1208C70.3607 27.3069 69.4158 27.219 68.5556 26.8682C67.6954 26.5175 66.9585 25.9197 66.438 25.1503C65.9174 24.3809 65.6366 23.4744 65.631 22.5455C65.6309 21.2999 66.1224 20.1046 66.9988 19.2194C67.8751 18.3342 69.0654 17.8307 70.3109 17.8182ZM49.6953 8.25024C49.8371 12.3299 51.4302 16.6837 53.6568 20.6972C58.5353 29.5135 64.4633 32.6713 70.3109 32.6713C71.9982 32.665 73.6574 32.2393 75.1393 31.4325C76.6211 30.6258 77.8792 29.4632 78.8003 28.0496C79.7213 26.6359 80.2765 25.0154 80.4158 23.3339C80.5551 21.6524 80.2742 19.9627 79.5983 18.4167C78.9225 16.8707 77.8729 15.517 76.544 14.4774C75.215 13.4378 73.6485 12.7448 71.9853 12.4609C70.3221 12.177 68.6144 12.311 67.0159 12.8509C65.4174 13.3908 63.9781 14.3197 62.8277 15.5539C63.0371 17.1789 63.3931 18.7817 63.8913 20.3426C64.3601 19.0136 65.2289 17.8625 66.3784 17.0473C67.528 16.2321 68.9017 15.793 70.3109 15.7902C72.0598 15.8367 73.7215 16.564 74.942 17.8174C76.1626 19.0708 76.8456 20.7511 76.8456 22.5006C76.8456 24.2501 76.1626 25.9304 74.942 27.1838C73.7215 28.4372 72.0598 29.1645 70.3109 29.211C62.3928 29.211 60.2324 17.7757 60.2088 8.25024H49.6953ZM62.5346 13.091C64.7188 11.2714 67.4681 10.2686 70.3109 10.2546C72.8869 10.2754 75.3924 11.0983 77.4791 12.6089C79.5658 14.1195 81.13 16.2427 81.9542 18.6833C82.9422 17.5913 85.3106 12.4622 85.736 8.25024H62.2982C62.2564 9.87217 62.3354 11.495 62.5346 13.1052V13.091ZM90.9597 8.25024H87.7593C87.0644 14.027 84.5779 19.1986 82.4979 21.6568V22.4982C82.4987 24.601 81.9582 26.6686 80.9284 28.5019C85.9819 24.1859 90.8415 15.1426 90.9597 8.25024ZM90.8793 16.9484C88.615 23.1695 84.9466 28.2372 80.4793 31.343L90.8793 37.5546V16.9484ZM49.7757 17.0004V37.5641L60.1426 31.3572C55.7084 28.2655 52.0211 23.1979 49.7757 17.0004ZM78.456 32.6004L90.8793 39.9939H49.7757L62.1942 32.591C64.6774 33.9713 67.4699 34.6999 70.3109 34.7088C73.1578 34.6893 75.9558 33.9667 78.456 32.6052" fill="#FDB813"/>
</svg>

<svg xmlns="http://www.w3.org/2000/svg" width="128" height="64" fill="none"><rect width="128" height="64" fill="#fff" rx="6"/><path fill="#003A77" fill-rule="evenodd" d="M47.733 6.222h45.174v35.819H47.733V6.222Zm-12.867.582 1.54 1.56v1.092l-1.54-1.012v-1.64Zm3.564-.501h2.964c.236 0 .747.052.842-.303h.193v1.565c-.199.09-.411.147-.628.17a2.284 2.284 0 0 1 .775 1.844c0 .973-.539 1.734-1.565 1.734-1.026 0-1.607-.657-1.763-1.64l-.199-1.385c0-.34-.184-.539-.392-.539-.553 0-.662.501-.662 1.002s.133.79.766.946v1.446c-1.447-.156-1.924-1.106-1.924-2.524 0-1.012.345-2.316 1.593-2.316Zm1.371 1.446c.175.316.278.666.302 1.026.067.633.251 1.04.828 1.04a.605.605 0 0 0 .624-.586.685.685 0 0 0 0-.1 1.418 1.418 0 0 0-.473-1.181c-.407-.303-.752-.185-1.262-.199H39.8Zm.945 7.564h1.697v1.498h-7.355V15.29h4l-2.076-1.83v-1.852l2.103 2.023 3.31-2.066v1.777l-2.302 1.357.623.615Zm-2.075 2.775v1.474c-.596.156-.714.421-.714 1.055 0 .633.185.945.54.945.174 0 .33-.184.42-.596.09-.41.213-.84.302-1.3.2-.893.554-1.71 1.527-1.71 1.329 0 1.844 1.077 1.844 2.524 0 1.267-.407 2.737-1.844 2.737v-1.513c.473 0 .766-.435.766-1.29 0-.303-.042-.984-.553-.984-.184 0-.345.236-.435.629-.09.392-.212.907-.288 1.328-.236.87-.582 1.607-1.541 1.622-1.3 0-1.844-1.144-1.844-2.303 0-1.62.605-2.5 1.82-2.595v-.023Zm0 6.079h3.749v1.489h-3.31c-.58 0-1.105.156-1.105.998a1.163 1.163 0 0 0 1.11 1.205h3.281v1.47h-5.384v-1.418h.79v-.038a1.924 1.924 0 0 1-.946-1.725c0-1.116.662-2 1.825-2l-.01.019ZM40.855 32v-1.541c1.253.345 1.712 1.239 1.712 2.487 0 1.829-.946 2.836-2.974 2.836-1.645 0-2.766-.946-2.766-2.7 0-2.363 2.043-2.76 3.31-2.694v3.895c1.002 0 1.328-.553 1.319-1.319a.945.945 0 0 0-.591-1.002l-.01.038Zm-1.66 2.222V32c-.666.118-1.167.407-1.167 1.102 0 .694.402 1.006 1.177 1.096l-.01.024Zm-2.193 1.89 5.427 2.033v1.58l-5.417 2.027v-1.659l3.697-1.187-3.697-1.233v-1.608l-.01.048Zm2.71 5.924c1.852 0 2.835 1.234 2.835 2.945 0 1.711-1.04 2.907-2.836 2.907a2.719 2.719 0 0 1-2.883-2.907c0-1.711 1.025-2.978 2.893-2.978l-.01.033Zm0 1.55c-.762 0-1.684.303-1.684 1.419 0 1.115.908 1.356 1.683 1.356.776 0 1.674-.198 1.674-1.356 0-1.159-.903-1.452-1.664-1.452l-.01.034Zm-4.634 5.38h7.342v1.47h-7.332l-.01-1.47Zm5.134 8.982v-1.513c.946 0 1.182-.907 1.173-1.63 0-.634-.123-1.622-.946-1.622-.411 0-.766.293-.945 1.418a13.67 13.67 0 0 1-.553 2.118c-.275.841-1.012 1.12-1.787 1.12-1.645 0-2.265-1.46-2.265-2.921 0-2.17 1.239-2.96 2.364-3.011v1.55c-.908.066-1.135.761-1.135 1.579 0 .605.213 1.328.908 1.328.53 0 .671-.368.766-.813l.435-1.89c.312-1.343.76-2.038 1.985-2.038 1.669 0 2.364 1.418 2.364 3.04 0 1.621-.591 3.276-2.42 3.276l.056.009Zm46.143-2.434-.723 2.16H83.41l3.63-10.343h2.478l3.616 10.343h-2.33l-.643-2.16h-3.806Zm1.867-5.792-1.285 4.023h2.58l-1.247-4.013-.047-.01Zm-6.882-.605v8.51h-1.891v-8.51H76.28v-1.853h8.17v1.844l-3.111.01Zm-7.422-3.616h-1.721l-1.002 1.154-.988-1.159h-1.735l1.418 1.66c-1.55.302-2.879 1.22-2.879 3.077 0 1.352.605 2.142 1.593 2.51.994.34 2.014.601 3.05.78 1.805.355 1.999.775 1.999 1.314 0 .842-.775 1.305-2.302 1.305-1.527 0-2.326-.671-2.326-1.66h-2.198c0 2.658 2.364 3.424 4.67 3.424 1.83 0 4.354-.7 4.354-3.343 0-1.763-.827-2.307-2.907-2.794l-2.671-.605c-.648-.17-1.158-.326-1.158-1.092 0-.945 1.054-1.276 1.89-1.276 1.485 0 2.156.605 2.25 1.593h2.223a3.432 3.432 0 0 0-2.978-3.238l1.38-1.655.038.005ZM56.09 52.526c0-3.182 2.302-5.578 4.935-5.578 2.633 0 4.922 2.184 4.922 5.578S63.603 58 61.012 58c-2.59 0-4.935-2.288-4.935-5.474h.014Zm2.023 0c0 1.83.946 3.673 2.87 3.673 1.924 0 2.935-1.891 2.935-3.673s-1.011-3.782-2.935-3.782c-1.924 0-2.87 1.924-2.87 3.782Zm-8.509 1.418v3.701h-1.853v-10.4h4.42c1.948 0 3.064 1.343 3.064 3.366 0 2.024-1.315 3.276-3.144 3.276l-2.487.057Zm0-1.787h2.33a1.541 1.541 0 1 0 .171-3.077h-2.534v3.077" clip-rule="evenodd"/><path fill="#FDB813" fill-rule="evenodd" d="M70.31 17.818a4.7 4.7 0 1 1-4.679 4.727 4.727 4.727 0 0 1 4.68-4.727ZM49.696 8.25c.142 4.08 1.735 8.434 3.962 12.447 4.878 8.817 10.806 11.974 16.654 11.974a10.177 10.177 0 1 0-7.483-17.117 27.17 27.17 0 0 0 1.063 4.789 6.822 6.822 0 0 1 6.42-4.553 6.713 6.713 0 0 1 0 13.421c-7.918 0-10.079-11.435-10.102-20.96H49.695Zm12.84 4.841a12.243 12.243 0 0 1 7.776-2.836 12.395 12.395 0 0 1 11.643 8.428c.988-1.092 3.357-6.22 3.782-10.433H62.298a32.685 32.685 0 0 0 .237 4.855v-.014Zm28.425-4.84h-3.2c-.696 5.776-3.182 10.948-5.262 13.406v.841c0 2.103-.54 4.17-1.57 6.004 5.054-4.316 9.913-13.36 10.032-20.252Zm-.08 8.697c-2.265 6.221-5.933 11.29-10.4 14.395l10.4 6.212V16.948ZM49.775 17v20.564l10.367-6.207C55.708 28.266 52.02 23.197 49.776 17Zm28.68 15.6 12.423 7.394H49.776l12.418-7.403a16.815 16.815 0 0 0 8.117 2.118 17.279 17.279 0 0 0 8.145-2.104" clip-rule="evenodd"/></svg>
